X:313
T:Eastwell Park
C:Johnson, 1748
M:6/8
R:Jig
S:Colin Hume's website,  colinhume.com  - chords can also be printed below the stave.
Q:3/8=102
L:1/8
K:A
P:A
|: A | "A"c2B "/"cBA | "D"a2g "/"agf | "A"ecA "Bm"fdf | "E7"agf "A"ecA |\
"A"c2B "/"cBA | "D"fga "B7"agf | "E"gfe "B7"Be^d | "E"e3- "/"e2 :|
P:B
|: B | "E"G2F "/"GFE | "E7"Bcd "/"dcB | "A"c2B "/"cBA | "A7"ef=g "/"gfe |\
"D"fdf "A"ecA | "E7"GAB "/"Bcd | "A"cBA "E7"EAG | "A"A3- "/"A2 :|

